;Generated with Cura_SteamEngine 15.05
; Default start code
G28 ; Home extruder
G1 Z15 F1000
M107 ; Turn off fan
G90 ; Absolute positioning
M82 ; Extruder in absolute mode
M190 S110
; Activate all used extruder
M104 T0 S245
G92 E0 ; Reset extruder position
; Wait for all used extruders to reach temperature
M109 T0 S245
;Layer count: 10
;LAYER:0
M107
G0 F9000 X18.440 Y6.776 Z0.300
G0 X18.423 Y6.911
;TYPE:SKIRT
G1 F1800 X18.440 Y6.776 E0.00679
G1 X18.816 Y5.699 E0.06370
G1 X18.862 Y5.572 E0.07044
G1 X19.467 Y4.608 E0.12722
G1 X19.539 Y4.493 E0.13399
G1 X20.443 Y3.589 E0.19777
G1 X21.410 Y2.982 E0.25473
G1 X21.525 Y2.910 E0.26150
G1 X22.603 Y2.533 E0.31848
G1 X22.728 Y2.488 E0.32511
G1 X23.905 Y2.357 E0.38419
G1 X108.200 Y2.350 E4.58968
G1 X108.200 Y8.750 E4.90898
G1 X105.700 Y8.750 E5.03371
G1 X105.700 Y12.350 E5.21331
G1 X114.300 Y12.350 E5.64237
G1 X114.300 Y8.750 E5.82197
G1 X111.800 Y8.750 E5.94670
G1 X111.800 Y2.350 E6.26599
G1 X196.039 Y2.350 E10.46870
G1 X197.269 Y2.488 E10.53044
G1 X198.475 Y2.910 E10.59419
G1 X199.556 Y3.589 E10.65788
G1 X200.460 Y4.493 E10.72166
G1 X201.139 Y5.574 E10.78535
G1 X201.561 Y6.780 E10.84909
G1 X201.700 Y8.011 E10.91090
G1 X201.700 Y93.200 E15.16099
G1 X195.300 Y93.200 E15.48029
G1 X195.300 Y90.700 E15.60502
G1 X191.700 Y90.700 E15.78462
G1 X191.700 Y99.300 E16.21368
G1 X195.300 Y99.300 E16.39328
G1 X195.300 Y96.800 E16.51801
G1 X201.700 Y96.800 E16.83730
G1 X201.700 Y181.988 E21.08735
G1 X201.576 Y183.089 E21.14263
G1 X201.559 Y183.223 E21.14937
G1 X201.183 Y184.300 E21.20628
G1 X201.137 Y184.427 E21.21302
G1 X200.532 Y185.391 E21.26980
G1 X200.460 Y185.506 E21.27657
G1 X199.556 Y186.410 E21.34035
G1 X198.589 Y187.017 E21.39731
G1 X198.474 Y187.089 E21.40408
G1 X197.396 Y187.466 E21.46106
G1 X197.271 Y187.511 E21.46768
G1 X196.095 Y187.642 E21.52672
G1 X23.961 Y187.649 E30.11452
G1 X22.861 Y187.526 E30.16974
G1 X22.726 Y187.509 E30.17653
G1 X21.649 Y187.133 E30.23344
G1 X21.522 Y187.087 E30.24018
G1 X20.559 Y186.483 E30.29689
G1 X20.443 Y186.410 E30.30373
G1 X19.539 Y185.506 E30.36751
G1 X18.932 Y184.539 E30.42447
G1 X18.860 Y184.424 E30.43124
G1 X18.483 Y183.346 E30.48822
G1 X18.438 Y183.221 E30.49484
G1 X18.307 Y182.044 E30.55393
G1 X18.300 Y8.011 E39.23647
G1 X18.423 Y6.911 E39.29169
G0 F9000 X19.712 Y7.074
;TYPE:WALL-INNER
G1 F1800 X20.037 Y6.144 E39.34084
G1 X20.563 Y5.307 E39.39016
G1 X21.257 Y4.613 E39.43912
G1 X22.092 Y4.089 E39.48831
G1 X23.025 Y3.763 E39.53761
G1 X23.975 Y3.657 E39.58530
G1 X106.900 Y3.650 E43.72245
G1 X106.900 Y7.450 E43.91203
G1 X104.400 Y7.450 E44.03676
G1 X104.400 Y13.650 E44.34608
G1 X115.600 Y13.650 E44.90485
G1 X115.600 Y7.450 E45.21417
G1 X113.100 Y7.450 E45.33889
G1 X113.100 Y3.650 E45.52847
G1 X195.969 Y3.650 E49.66282
G1 X196.978 Y3.763 E49.71348
G1 X197.906 Y4.088 E49.76253
G1 X198.742 Y4.613 E49.81178
G1 X199.436 Y5.307 E49.86075
G1 X199.961 Y6.143 E49.91000
G1 X200.286 Y7.071 E49.95906
G1 X200.400 Y8.082 E50.00981
G1 X200.400 Y91.900 E54.19151
G1 X196.600 Y91.900 E54.38109
G1 X196.600 Y89.400 E54.50582
G1 X190.400 Y89.400 E54.81514
G1 X190.400 Y100.600 E55.37391
G1 X196.600 Y100.600 E55.68323
G1 X196.600 Y98.100 E55.80795
G1 X200.400 Y98.100 E55.99754
G1 X200.400 Y181.918 E60.17923
G1 X200.287 Y182.925 E60.22979
G1 X199.962 Y183.855 E60.27894
G1 X199.436 Y184.692 E60.32826
G1 X198.742 Y185.386 E60.37722
G1 X197.907 Y185.910 E60.42640
G1 X196.974 Y186.236 E60.47571
G1 X196.025 Y186.342 E60.52335
G1 X24.031 Y186.349 E69.10417
G1 X23.024 Y186.237 E69.15472
G1 X22.094 Y185.912 E69.20387
G1 X21.257 Y185.386 E69.25319
G1 X20.563 Y184.692 E69.30215
G1 X20.039 Y183.857 E69.35133
G1 X19.713 Y182.924 E69.40064
G1 X19.607 Y181.974 E69.44833
G1 X19.600 Y8.081 E78.12389
G1 X19.712 Y7.074 E78.17444
G0 F9000 X24.015 Y10.741
G1 F1800 X23.930 Y10.864 E78.18190
G1 X23.344 Y12.410 E78.26438
G1 X23.165 Y13.896 E78.33905
G1 X23.145 Y14.046 E78.34660
G1 X23.326 Y15.546 E78.42198
G1 X23.345 Y15.693 E78.42938
G1 X23.930 Y17.235 E78.51166
G1 X24.785 Y18.473 E78.58672
G1 X24.869 Y18.595 E78.59411
G1 X25.995 Y19.593 E78.66917
G1 X26.107 Y19.691 E78.67660
G1 X27.438 Y20.390 E78.75160
G1 X27.569 Y20.458 E78.75897
G1 X29.029 Y20.818 E78.83399
G1 X29.170 Y20.854 E78.84125
G1 X30.826 Y20.854 E78.92387
G1 X32.288 Y20.494 E78.99898
G1 X32.433 Y20.457 E79.00645
G1 X33.761 Y19.760 E79.08128
G1 X33.893 Y19.691 E79.08871
G1 X35.017 Y18.695 E79.16363
G1 X35.130 Y18.596 E79.17113
G1 X35.984 Y17.358 E79.24616
G1 X36.069 Y17.235 E79.25362
G1 X36.655 Y15.689 E79.33611
G1 X36.835 Y14.204 E79.41073
G1 X36.855 Y14.054 E79.41828
G1 X36.673 Y12.553 E79.49372
G1 X36.654 Y12.406 E79.50111
G1 X36.069 Y10.864 E79.58339
G1 X35.214 Y9.626 E79.65846
G1 X35.130 Y9.504 E79.66585
G1 X34.004 Y8.506 E79.74091
G1 X33.892 Y8.408 E79.74834
G1 X32.561 Y7.709 E79.82334
G1 X32.430 Y7.641 E79.83070
G1 X30.970 Y7.281 E79.90573
G1 X30.829 Y7.245 E79.91299
G1 X29.173 Y7.245 E79.99560
G1 X27.711 Y7.605 E80.07072
G1 X27.566 Y7.642 E80.07819
G1 X26.238 Y8.339 E80.15301
G1 X26.106 Y8.408 E80.16044
G1 X24.982 Y9.404 E80.23537
G1 X24.869 Y9.503 E80.24286
G1 X24.015 Y10.741 E80.31790
G0 F9000 X23.346 Y12.411
G0 X23.348 Y15.693
G0 X24.870 Y18.593
G0 X27.570 Y20.457
G0 X30.826 Y20.852
G0 X33.892 Y19.689
G0 X40.400 Y24.450
G1 F1800 X40.400 Y165.549 E87.35736
G1 X179.600 Y165.549 E94.30207
G1 X179.600 Y24.450 E101.34153
G1 X40.400 Y24.450 E108.28625
G0 F9000 X183.145 Y14.046
G1 F1800 X183.326 Y15.546 E108.36162
G1 X183.345 Y15.693 E108.36902
G1 X183.930 Y17.235 E108.45130
G1 X184.785 Y18.473 E108.52636
G1 X184.869 Y18.595 E108.53375
G1 X185.995 Y19.593 E108.60882
G1 X186.107 Y19.691 E108.61624
G1 X187.438 Y20.390 E108.69125
G1 X187.569 Y20.458 E108.69861
G1 X189.029 Y20.818 E108.77363
G1 X189.170 Y20.854 E108.78089
G1 X190.826 Y20.854 E108.86351
G1 X192.288 Y20.494 E108.93863
G1 X192.433 Y20.457 E108.94609
G1 X193.761 Y19.760 E109.02092
G1 X193.893 Y19.691 E109.02835
G1 X195.017 Y18.695 E109.10327
G1 X195.130 Y18.596 E109.11077
G1 X195.984 Y17.358 E109.18580
G1 X196.069 Y17.235 E109.19326
G1 X196.655 Y15.689 E109.27575
G1 X196.835 Y14.204 E109.35038
G1 X196.855 Y14.054 E109.35793
G1 X196.673 Y12.553 E109.43336
G1 X196.654 Y12.406 E109.44076
G1 X196.069 Y10.864 E109.52304
G1 X195.214 Y9.626 E109.59810
G1 X195.130 Y9.504 E109.60549
G1 X194.004 Y8.506 E109.68055
G1 X193.892 Y8.408 E109.68798
G1 X192.561 Y7.709 E109.76298
G1 X192.430 Y7.641 E109.77035
G1 X190.970 Y7.281 E109.84537
G1 X190.829 Y7.245 E109.85263
G1 X189.173 Y7.245 E109.93525
G1 X187.711 Y7.605 E110.01037
G1 X187.566 Y7.642 E110.01783
G1 X186.238 Y8.339 E110.09266
G1 X186.106 Y8.408 E110.10009
G1 X184.982 Y9.404 E110.17501
G1 X184.869 Y9.503 E110.18251
G1 X184.015 Y10.741 E110.25754
G1 X183.930 Y10.864 E110.26500
G1 X183.344 Y12.410 E110.34749
G1 X183.165 Y13.896 E110.42216
G1 X183.145 Y14.046 E110.42971
G0 F9000 X189.173 Y169.145
G1 F1800 X187.711 Y169.505 E110.50483
G1 X187.566 Y169.542 E110.51229
G1 X186.238 Y170.239 E110.58712
G1 X186.106 Y170.308 E110.59455
G1 X184.982 Y171.304 E110.66947
G1 X184.869 Y171.403 E110.67697
G1 X184.015 Y172.641 E110.75200
G1 X183.930 Y172.764 E110.75946
G1 X183.344 Y174.310 E110.84195
G1 X183.165 Y175.795 E110.91657
G1 X183.145 Y175.945 E110.92412
G1 X183.326 Y177.445 E110.99950
G1 X183.345 Y177.593 E111.00694
G1 X183.930 Y179.135 E111.08922
G1 X184.785 Y180.373 E111.16429
G1 X184.869 Y180.495 E111.17168
G1 X185.995 Y181.493 E111.24674
G1 X186.107 Y181.591 E111.25417
G1 X187.438 Y182.290 E111.32917
G1 X187.569 Y182.358 E111.33653
G1 X189.029 Y182.718 E111.41155
G1 X189.170 Y182.754 E111.41881
G1 X190.826 Y182.754 E111.50143
G1 X192.288 Y182.394 E111.57655
G1 X192.433 Y182.357 E111.58402
G1 X193.761 Y181.660 E111.65884
G1 X193.893 Y181.591 E111.66627
G1 X195.017 Y180.595 E111.74120
G1 X195.130 Y180.496 E111.74869
G1 X195.984 Y179.258 E111.82373
G1 X196.069 Y179.135 E111.83119
G1 X196.655 Y177.589 E111.91367
G1 X196.835 Y176.103 E111.98835
G1 X196.855 Y175.953 E111.99590
G1 X196.673 Y174.453 E112.07128
G1 X196.654 Y174.306 E112.07868
G1 X196.069 Y172.764 E112.16096
G1 X195.214 Y171.526 E112.23602
G1 X195.130 Y171.404 E112.24341
G1 X194.004 Y170.406 E112.31848
G1 X193.892 Y170.308 E112.32590
G1 X192.561 Y169.609 E112.40091
G1 X192.430 Y169.541 E112.40827
G1 X190.970 Y169.181 E112.48329
G1 X190.829 Y169.145 E112.49055
G1 X189.173 Y169.145 E112.57317
G0 F9000 X36.855 Y175.953
G1 F1800 X36.673 Y174.453 E112.64855
G1 X36.654 Y174.306 E112.65595
G1 X36.069 Y172.764 E112.73823
G1 X35.214 Y171.526 E112.81329
G1 X35.130 Y171.404 E112.82068
G1 X34.004 Y170.406 E112.89575
G1 X33.892 Y170.308 E112.90317
G1 X32.561 Y169.609 E112.97818
G1 X32.430 Y169.541 E112.98554
G1 X30.970 Y169.181 E113.06056
G1 X30.829 Y169.145 E113.06782
G1 X29.173 Y169.145 E113.15044
G1 X27.711 Y169.505 E113.22556
G1 X27.566 Y169.542 E113.23302
G1 X26.238 Y170.239 E113.30785
G1 X26.106 Y170.308 E113.31528
G1 X24.982 Y171.304 E113.39021
G1 X24.869 Y171.403 E113.39770
G1 X24.015 Y172.641 E113.47273
G1 X23.930 Y172.764 E113.48019
G1 X23.344 Y174.310 E113.56268
G1 X23.165 Y175.795 E113.63730
G1 X23.145 Y175.945 E113.64485
G1 X23.326 Y177.445 E113.72023
G1 X23.345 Y177.593 E113.72767
G1 X23.930 Y179.135 E113.80996
G1 X24.785 Y180.373 E113.88502
G1 X24.869 Y180.495 E113.89241
G1 X25.995 Y181.493 E113.96747
G1 X26.107 Y181.591 E113.97490
G1 X27.438 Y182.290 E114.04990
G1 X27.569 Y182.358 E114.05727
G1 X29.029 Y182.718 E114.13229
G1 X29.170 Y182.754 E114.13955
G1 X30.826 Y182.754 E114.22217
G1 X32.288 Y182.394 E114.29728
G1 X32.433 Y182.357 E114.30475
G1 X33.761 Y181.660 E114.37957
G1 X33.893 Y181.591 E114.38701
G1 X35.017 Y180.595 E114.46193
G1 X35.130 Y180.496 E114.46943
G1 X35.984 Y179.258 E114.54446
G1 X36.069 Y179.135 E114.55192
G1 X36.655 Y177.589 E114.63440
G1 X36.835 Y176.103 E114.70908
G1 X36.855 Y175.953 E114.71663
G0 F9000 X36.439 Y176.048
;TYPE:WALL-OUTER
G1 F1800 X36.452 Y175.950 E114.72156
G1 X36.276 Y174.504 E114.79424
G1 X36.263 Y174.405 E114.79922
G1 X35.712 Y172.951 E114.87679
G1 X34.829 Y171.671 E114.95437
G1 X33.739 Y170.706 E115.02700
G1 X33.664 Y170.640 E115.03199
G1 X32.287 Y169.918 E115.10956
G1 X30.877 Y169.570 E115.18201
G1 X30.778 Y169.545 E115.18711
G1 X29.222 Y169.545 E115.26474
G1 X27.808 Y169.893 E115.33739
G1 X27.711 Y169.918 E115.34238
G1 X26.335 Y170.640 E115.41991
G1 X25.245 Y171.605 E115.49254
G1 X25.170 Y171.671 E115.49752
G1 X24.287 Y172.951 E115.57510
G1 X23.735 Y174.406 E115.65274
G1 X23.561 Y175.850 E115.72531
G1 X23.548 Y175.948 E115.73024
G1 X23.723 Y177.395 E115.80295
G1 X23.736 Y177.494 E115.80794
G1 X24.287 Y178.948 E115.88551
G1 X25.170 Y180.228 E115.96309
G1 X26.260 Y181.193 E116.03572
G1 X26.335 Y181.259 E116.04070
G1 X27.712 Y181.981 E116.11827
G1 X29.122 Y182.329 E116.19073
G1 X29.221 Y182.354 E116.19582
G1 X30.777 Y182.354 E116.27345
G1 X32.191 Y182.006 E116.34610
G1 X32.288 Y181.981 E116.35110
G1 X33.664 Y181.259 E116.42863
G1 X34.754 Y180.294 E116.50126
G1 X34.829 Y180.228 E116.50624
G1 X35.712 Y178.948 E116.58382
G1 X36.264 Y177.493 E116.66146
G1 X36.439 Y176.048 E116.73408
G0 F9000 X36.733 Y176.099
G0 X40.500 Y165.149
G0 X40.800 Y165.149
G1 F1800 X179.200 Y165.149 E123.63888
G1 X179.200 Y24.850 E130.63843
G1 X40.800 Y24.850 E137.54323
G1 X40.800 Y165.149 E144.54278
G0 F9000 X40.500 Y165.149
G0 X36.068 Y179.133
G0 X33.892 Y181.589
G0 X30.826 Y182.752
G0 X27.570 Y182.357
G0 X24.028 Y186.449
G0 X24.013 Y186.749
G1 F1800 X22.965 Y186.632 E144.59539
G1 X22.936 Y186.629 E144.59684
G1 X21.949 Y186.284 E144.64900
G1 X21.917 Y186.273 E144.65069
G1 X21.007 Y185.702 E144.70429
G1 X20.247 Y184.942 E144.75791
G1 X19.678 Y184.035 E144.81133
G1 X19.333 Y183.048 E144.86349
G1 X19.321 Y183.017 E144.86515
G1 X19.207 Y181.992 E144.91660
G1 X19.200 Y8.063 E153.59396
G1 X19.317 Y7.015 E153.64657
G1 X19.320 Y6.986 E153.64802
G1 X19.665 Y5.999 E153.70018
G1 X19.676 Y5.967 E153.70187
G1 X20.247 Y5.057 E153.75547
G1 X21.007 Y4.297 E153.80909
G1 X21.914 Y3.728 E153.86251
G1 X22.901 Y3.383 E153.91467
G1 X22.932 Y3.371 E153.91633
G1 X23.957 Y3.257 E153.96778
G1 X107.300 Y3.250 E158.12578
G1 X107.300 Y7.850 E158.35528
G1 X104.800 Y7.850 E158.48000
G1 X104.800 Y13.250 E158.74941
G1 X115.200 Y13.250 E159.26827
G1 X115.200 Y7.850 E159.53768
G1 X112.700 Y7.850 E159.66240
G1 X112.700 Y3.250 E159.89190
G1 X195.987 Y3.250 E164.04710
G1 X197.067 Y3.371 E164.10132
G1 X198.085 Y3.728 E164.15514
G1 X198.992 Y4.297 E164.20856
G1 X199.752 Y5.057 E164.26218
G1 X200.321 Y5.964 E164.31560
G1 X200.678 Y6.982 E164.36942
G1 X200.800 Y8.063 E164.42369
G1 X200.800 Y92.300 E168.62629
G1 X196.200 Y92.300 E168.85579
G1 X196.200 Y89.800 E168.98051
G1 X190.800 Y89.800 E169.24992
G1 X190.800 Y100.200 E169.76878
G1 X196.200 Y100.200 E170.03819
G1 X196.200 Y97.700 E170.16291
G1 X200.800 Y97.700 E170.39241
G1 X200.800 Y181.936 E174.59496
G1 X200.682 Y182.984 E174.64757
G1 X200.679 Y183.013 E174.64903
G1 X200.334 Y184.000 E174.70119
G1 X200.323 Y184.032 E174.70288
G1 X199.752 Y184.942 E174.75648
G1 X198.992 Y185.702 E174.81010
G1 X198.085 Y186.271 E174.86352
G1 X197.098 Y186.616 E174.91568
G1 X197.067 Y186.628 E174.91734
G1 X196.043 Y186.742 E174.96874
G1 X24.013 Y186.749 E183.55135
G0 F9000 X24.028 Y186.449
G0 X183.252 Y175.908
G0 X183.548 Y175.948
G1 F1800 X183.723 Y177.395 E183.62407
G1 X183.736 Y177.494 E183.62905
G1 X184.287 Y178.948 E183.70663
G1 X185.170 Y180.228 E183.78421
G1 X186.260 Y181.193 E183.85684
G1 X186.335 Y181.259 E183.86182
G1 X187.712 Y181.981 E183.93939
G1 X189.122 Y182.329 E184.01185
G1 X189.221 Y182.354 E184.01694
G1 X190.777 Y182.354 E184.09457
G1 X192.191 Y182.006 E184.16722
G1 X192.288 Y181.981 E184.17222
G1 X193.664 Y181.259 E184.24974
G1 X194.754 Y180.294 E184.32237
G1 X194.829 Y180.228 E184.32736
G1 X195.712 Y178.948 E184.40494
G1 X196.264 Y177.493 E184.48257
G1 X196.439 Y176.048 E184.55519
G1 X196.452 Y175.950 E184.56012
G1 X196.276 Y174.504 E184.63280
G1 X196.263 Y174.405 E184.63778
G1 X195.712 Y172.951 E184.71535
G1 X194.829 Y171.671 E184.79293
G1 X193.739 Y170.706 E184.86556
G1 X193.664 Y170.640 E184.87055
G1 X192.287 Y169.918 E184.94812
G1 X190.877 Y169.570 E185.02057
G1 X190.778 Y169.545 E185.02567
G1 X189.222 Y169.545 E185.10330
G1 X187.808 Y169.893 E185.17595
G1 X187.711 Y169.918 E185.18094
G1 X186.335 Y170.640 E185.25847
G1 X185.245 Y171.605 E185.33110
G1 X185.170 Y171.671 E185.33608
G1 X184.287 Y172.951 E185.41366
G1 X183.735 Y174.406 E185.49130
G1 X183.561 Y175.850 E185.56386
G1 X183.548 Y175.948 E185.56880
G0 F9000 X183.252 Y175.908
G0 X189.146 Y20.744
G0 X189.221 Y20.454
G1 F1800 X190.777 Y20.454 E185.64643
G1 X192.191 Y20.106 E185.71908
G1 X192.288 Y20.081 E185.72407
G1 X193.664 Y19.359 E185.80160
G1 X194.754 Y18.394 E185.87423
G1 X194.829 Y18.328 E185.87921
G1 X195.712 Y17.048 E185.95679
G1 X196.264 Y15.593 E186.03443
G1 X196.439 Y14.149 E186.10700
G1 X196.452 Y14.051 E186.11193
G1 X196.276 Y12.604 E186.18466
G1 X196.263 Y12.505 E186.18964
G1 X195.712 Y11.051 E186.26721
G1 X194.829 Y9.771 E186.34479
G1 X193.739 Y8.806 E186.41742
G1 X193.664 Y8.740 E186.42241
G1 X192.287 Y8.018 E186.49997
G1 X190.877 Y7.670 E186.57243
G1 X190.778 Y7.645 E186.57753
G1 X189.222 Y7.645 E186.65515
G1 X187.808 Y7.993 E186.72780
G1 X187.711 Y8.018 E186.73280
G1 X186.335 Y8.740 E186.81033
G1 X185.245 Y9.705 E186.88296
G1 X185.170 Y9.771 E186.88794
G1 X184.287 Y11.051 E186.96552
G1 X183.735 Y12.506 E187.04316
G1 X183.561 Y13.951 E187.11577
G1 X183.548 Y14.049 E187.12070
G1 X183.723 Y15.495 E187.19337
G1 X183.736 Y15.594 E187.19835
G1 X184.287 Y17.048 E187.27593
G1 X185.170 Y18.328 E187.35351
G1 X186.260 Y19.293 E187.42614
G1 X186.335 Y19.359 E187.43112
G1 X187.712 Y20.081 E187.50869
G1 X189.122 Y20.429 E187.58115
G1 X189.221 Y20.454 E187.58624
G0 F9000 X189.146 Y20.744
G0 X36.748 Y14.091
G0 X36.452 Y14.051
G1 F1800 X36.276 Y12.604 E187.65896
G1 X36.263 Y12.505 E187.66395
G1 X35.712 Y11.051 E187.74152
G1 X34.829 Y9.771 E187.81910
G1 X33.739 Y8.806 E187.89173
G1 X33.664 Y8.740 E187.89671
G1 X32.287 Y8.018 E187.97428
G1 X30.877 Y7.670 E188.04674
G1 X30.778 Y7.645 E188.05183
G1 X29.222 Y7.645 E188.12946
G1 X27.808 Y7.993 E188.20211
